src/img/contacts/phone.svg

<svg width="40" height="40" viewBox="0 0 40 40" fill="none" xmlns="http://www.w3.org/2000/svg">
<path d="M18.7027 22.4273C19.6813 23.4201 20.8655 24.1866 22.1719 24.6729L23.9393 23.2665C23.9917 23.2304 24.0538 23.2111 24.1175 23.2111C24.1811 23.2111 24.2432 23.2304 24.2956 23.2665L27.5773 25.3808C27.7019 25.4557 27.8074 25.5586 27.8854 25.6813C27.9634 25.8039 28.0118 25.943 28.0268 26.0876C28.0418 26.2322 28.023 26.3783 27.9718 26.5144C27.9207 26.6505 27.8386 26.7728 27.732 26.8717L26.1943 28.3906C25.9741 28.6082 25.7034 28.7679 25.4065 28.8554C25.1095 28.9429 24.7955 28.9556 24.4925 28.8922C21.4697 28.2679 18.6835 26.8058 16.4524 24.6729C14.2708 22.5189 12.7611 19.778 12.1065 16.7828C12.0418 16.4845 12.0553 16.1745 12.1457 15.8829C12.236 15.5913 12.4002 15.328 12.6222 15.1185L14.2162 13.5808C14.3148 13.4795 14.4351 13.4017 14.568 13.3535C14.701 13.3052 14.8431 13.2876 14.9838 13.302C15.1245 13.3164 15.2601 13.3625 15.3805 13.4368C15.5008 13.511 15.6028 13.6116 15.6789 13.7309L17.8635 16.9704C17.9012 17.0212 17.9215 17.0829 17.9215 17.1462C17.9215 17.2095 17.9012 17.2711 17.8635 17.322L16.4243 19.0519C16.9238 20.3322 17.7021 21.4852 18.7027 22.4273Z" fill="#9CD6E1"/>
<circle cx="20.0001" cy="20" r="19.5" stroke="#9CD6E1"/>
</svg>

<svg width="40" height="40" fill="none" xmlns="http://www.w3.org/2000/svg"><path d="M18.703 22.427a9.549 9.549 0 0 0 3.469 2.246l1.767-1.406a.314.314 0 0 1 .357 0l3.281 2.114a.937.937 0 0 1 .155 1.49l-1.538 1.52a1.875 1.875 0 0 1-1.701.501 16.45 16.45 0 0 1-8.04-4.22 15.841 15.841 0 0 1-4.346-7.89 1.771 1.771 0 0 1 .515-1.664l1.594-1.537a.937.937 0 0 1 1.463.15l2.184 3.24a.295.295 0 0 1 0 .351l-1.439 1.73a9.258 9.258 0 0 0 2.279 3.375Z" fill="#9CD6E1"/><circle cx="20" cy="20" r="19.5" stroke="#9CD6E1"/></svg>
